icon-themes/sifr_svg/cmd/lc_showdependents.svg

<svg viewBox="0 0 24 24" xmlns="http://www.w3.org/2000/svg"><path d="m6 3v1c0 .2653.0931.53058.28125.71875l1.28125 1.28125h-5.5625v2h5.5625l-1.28125 1.28125c-.18811.18818-.28129.45344-.28125.71875v1h1c.26529 0 .53057-.09304.71875-.28125l3-3 .28125-.28125v-.875l-.28125-.28125-3-3c-.18817-.18814-.45344-.2812198-.71875-.28125zm8 0c-.554 0-1 .446-1 1v6c0 .554.446 1 1 1h6c.554 0 1-.446 1-1v-6c0-.554-.446-1-1-1zm1 2h4v4h-4zm-9 8v1c0 .2653.0931.53058.28125.71875l1.28125 1.28125h-5.5625v2h5.5625l-1.28125 1.28125c-.18811.18818-.28129.45344-.28125.71875v1h1c.26529 0 .53057-.09304.71875-.28125l3-3 .28125-.28125v-.875l-.28125-.28125-3-3c-.18817-.18814-.45344-.28122-.71875-.28125zm8 0c-.554 0-1 .446-1 1v6c0 .554.446 1 1 1h6c.554 0 1-.446 1-1v-6c0-.554-.446-1-1-1zm1 2h4v4h-4z" fill="#555753"/></svg>

<svg xmlns="http://www.w3.org/2000/svg" viewBox="0 0 24 24">
  <path
     style="fill:#555753"
     d="M 6 3 L 6 4 C 6 4.2653 6.0931 4.53058 6.28125 4.71875 L 7.5625 6 L 2 6 L 2 8 L 7.5625 8 L 6.28125 9.28125 C 6.09314 9.46943 5.99996 9.73469 6 10 L 6 11 L 7 11 C 7.26529 11 7.53057 10.90696 7.71875 10.71875 L 10.71875 7.71875 L 11 7.4375 L 11 6.5625 L 10.71875 6.28125 L 7.71875 3.28125 C 7.53058 3.09311 7.26531 3.0000302 7 3 L 6 3 z M 14 3 C 13.446 3 13 3.446 13 4 L 13 10 C 13 10.554 13.446 11 14 11 L 20 11 C 20.554 11 21 10.554 21 10 L 21 4 C 21 3.446 20.554 3 20 3 L 14 3 z M 15 5 L 19 5 L 19 9 L 15 9 L 15 5 z M 6 13 L 6 14 C 6 14.2653 6.0931 14.53058 6.28125 14.71875 L 7.5625 16 L 2 16 L 2 18 L 7.5625 18 L 6.28125 19.28125 C 6.09314 19.46943 5.99996 19.73469 6 20 L 6 21 L 7 21 C 7.26529 21 7.53057 20.90696 7.71875 20.71875 L 10.71875 17.71875 L 11 17.4375 L 11 16.5625 L 10.71875 16.28125 L 7.71875 13.28125 C 7.53058 13.09311 7.26531 13.00003 7 13 L 6 13 z M 14 13 C 13.446 13 13 13.446 13 14 L 13 20 C 13 20.554 13.446 21 14 21 L 20 21 C 20.554 21 21 20.554 21 20 L 21 14 C 21 13.446 20.554 13 20 13 L 14 13 z M 15 15 L 19 15 L 19 19 L 15 19 L 15 15 z "
     />
</svg>
